X:1
T:Title
%%score { ( 1 3 ) | ( 2 4 ) }
L:1/8
M:4/4
K:Eb
V:1 treble nm="Grand Piano"
V:3 treble 
V:2 bass 
V:4 bass 
V:1
 z4 z2[Q:1/4=100] E2 | G3 G F2 E2 | A4 G2 G2 | [GB]3 [GB] [Ac]2 [_G=A]2 |[M:3/4] [GB]6 | %5
[M:1/4] [GB]2 |[M:4/4] [Fd]3 [Fd] [Fc]2 [FB]2 | c2 B2 G2 G2 | F2 e2 d3 c | %9
[M:3/4] B2- [FB-]2 [AB]2 |[M:1/4] [B,AB]2 |[M:4/4] [_Gc]4 [B,=GB]2 [B,GB]2 | %12
 [_Gc]4 [B,=GB]2 [GB]2 | [GB] [Ge]3 [EB]2 [EG]2 |[M:3/4] [DF]6 |[M:1/4] [DF]2 | %16
[M:4/4] G2 FE A2 GF | B2 AG c2 c2 | B e2 A G2 [DF]2 |[M:3/4] E6 |] %20
V:2
 z4 z2 [E,G,]2 | [E,B,E]3 [E,B,E] [E,A,E]2 [E,G,]2 | [E,CE]4 [E,B,E]2 [E,B,E]2 | %3
 [E,E]3 [E,E] [E,E]2 [E,E]2 |[M:3/4] [E,E]6 |[M:1/4] [E,B,]2 | %6
[M:4/4] [B,,A,]3 [B,,A,] [B,,A,]2 [B,,A,]2 | [E,A,E]2 [E,G,E]2 [E,B,E]2 [E,B,E]2 | %8
 [F,B,D]2 [F,=A,F]2 [F,A,F]3 [F,A,E] |[M:3/4] z2 A,2 F,2 |[M:1/4] B,,2 | %11
[M:4/4] =A,-[E,A,-][E,A,-][E,A,] E,2 E,2 | =A,-[E,A,-][E,A,-][E,A,] E,2 [E,E]2 | %13
 [E,E] [E,B,]3 [E,G,]2 [E,B,]2 |[M:3/4] [B,,B,]6 |[M:1/4] [B,,B,]2 | %16
[M:4/4] [E,B,E]2 [E,A,E][E,G,] [E,CE]2 [E,B,E][E,A,E] | [E,G,E]2 [E,CE][E,B,E] [A,E]2 [_G,=A,E]2 | %18
 [G,B,E]3 [A,CE] [B,E]2 [B,,A,]2 |[M:3/4] [E,G,]6 |] %20
V:3
 x8 | x8 | x8 | x8 |[M:3/4] x6 |[M:1/4] x2 |[M:4/4] x8 | x8 | x8 |[M:3/4] [B,D]2 z2 z2 | %10
[M:1/4] x2 |[M:4/4] x8 | x8 | x8 |[M:3/4] x6 |[M:1/4] x2 |[M:4/4] x8 | x8 | x8 |[M:3/4] x6 |] %20
V:4
 x8 | x8 | x8 | x8 |[M:3/4] x6 |[M:1/4] x2 |[M:4/4] x8 | x8 | x8 |[M:3/4] B,,6 |[M:1/4] x2 | %11
[M:4/4] .E,2 z2 z4 | .E,2 z2 z4 | x8 |[M:3/4] x6 |[M:1/4] x2 |[M:4/4] x8 | x8 | x8 |[M:3/4] x6 |] %20

